actions/22x22-light/kr_combine.svg

<svg xmlns="http://www.w3.org/2000/svg" viewBox="0 0 22 22">
 <defs id="defs3051">
   <style type="text/css" id="current-color-scheme">
     .ColorScheme-Text {
       color:#4d4d4d;
     }
     </style>
 </defs>
   <path
      style="fill:currentColor;fill-opacity:1;stroke:none"
      d="m3 5v1h7v4 2 4h-6.9335938v1h6.9335938 1v-5h5v1.5l3-2.5-3-2.5v1.5h-5v-5h-1z"
      class="ColorScheme-Text" />
</svg>

<svg xmlns="http://www.w3.org/2000/svg" viewBox="0 0 22 22">
  <defs id="defs3051">
    <style type="text/css" id="current-color-scheme">
      .ColorScheme-Text {
        color:#4d4d4d;
      }
      </style>
  </defs>
 <path 
     style="fill:currentColor;fill-opacity:1;stroke:none" 
     d="M 3 5 L 3 6 L 10 6 L 10 10 L 10 12 L 10 16 L 3.0664062 16 L 3.0664062 17 L 10 17 L 11 17 L 11 12 L 16 12 L 16 13.5 L 19 11 L 16 8.5 L 16 10 L 11 10 L 11 5 L 10 5 L 3 5 z "
     class="ColorScheme-Text"
     />
</svg>
